X:1
T:How blest is he who ne’er consents
T:Joseph Stephenson
T:Text: Tate/Brady, on Ps. 1.
T:This edition by Edmund Gooch released into the public domain, December 2010. As such, it may be freely copied and performed.
T:How blest is he who ne’er consents
T:A 4 Voce. Ps 1st.
T:Copyright © 
C:Joseph Stephenson
Z:Text: Tate/Brady, on Ps. 1.
Z:Copyright ©
%%score [ 1 2 3 4 ]
L:1/8
M:3/2
K:G
V:1 treble nm="SOPRANO" snm="S."
V:2 treble nm="ALTO" snm="A."
V:3 treble-8 transpose=-12 nm="TENOR" snm="T."
V:4 bass nm="BASS" snm="B."
V:1
 G4 | B8 A4 | G8 G4 | A4 TF8 | G8 G4 | A8 B4 | (c2 B2 A4) A4 | A8 A4 | (G6 A2) (B2 c2) | d8 d4 | %10
w: Like|some fair|tree, which,|fed by|streams, With|time- ly|fruit _ _ does|bend, He|still _ shall _|flou- rish,|
w: How|blest is|he who|ne’er con-|sents By|ill ad-|vice _ _ to|walk; Nor|stands _ in _|sin- ners’|
w: But|makes the|per- fect|law of|God His|busi- ness|and _ _ de-|light; De-|vout- * ly _|reads there-|
 e8 d4 | d8 B4 | A8 G4 | G8 F4 | G8 |] %15
w: and suc-|cess All|his de-|signs at-|tend.|
w: ways, nor|sits Where|men pro-|fane- ly|talk.|
w: in by|day, And|me- di-|tates by|night.|
V:2
 D4 | D8 D4 | D8 G4 | E4 D8 | D8 D4 | D8 D4 | (G6 F2) E4 | F8 F4 | E8 D4 | D8 (G2 F2) | %10
w: Like|some fair|tree, which,|fed by|streams, With|time- ly|fruit _ does|bend, He|still shall|flou- rish, _|
w: How|blest is|he who|ne’er con-|sents By|ill ad-|vice _ to|walk; Nor|stands in|sin- ners’ _|
w: But|makes the|per- fect|law of|God His|busi- ness|and _ de-|light; De-|vout- ly|reads there- *|
 (E6 F2) G4 | F8 D4 | D8 D4 | E4 (TD6 C2) | B,8 |] %15
w: and _ suc-|cess All|his de-|signs at- *|tend.|
w: ways, _ nor|sits Where|men pro-|fane- ly _|talk.|
w: in _ by|day, And|me- di-|tates by _|night.|
V:3
 G4 | G8 A4 | B8 G4 | (c2 B2) (TA6 G2) | G8 (B3 c) | d8 B4 | (e4 d4) ^c4 | d8 (d3 c) | (B6 A2) G4 | %9
w: Like|some fair|tree, which,|fed _ by _|streams, With _|time- ly|fruit _ does|bend, He _|still _ shall|
w: How|blest is|he who|ne’er _ con- *|sents By _|ill ad-|vice _ to|walk; Nor _|stands _ in|
w: But|makes the|per- fect|law _ of _|God His _|busi- ness|and _ de-|light; De- *|vout- * ly|
 F8 d4 | c8 B4 | A8 G4 | (d6 c2) B4 | (c2 B2) (TA6 G2) | G8 |] %15
w: flou- rish,|and suc-|cess All|his _ de-|signs _ at- *|tend.|
w: sin- ners’|ways, nor|sits Where|men _ pro-|fane- * ly _|talk.|
w: reads there-|in by|day, And|me- * di-|tates _ by _|night.|
V:4
 G,,4 | G,,8 D,4 | G,8 E,4 | C,4 D,8 | G,,8 G,4 | F,8 G,4 | (E,4 A,4) A,,4 | D,8 D,4 | %8
w: Like|some fair|tree, which,|fed by|streams, With|time- ly|fruit _ does|bend, He|
w: How|blest is|he who|ne’er con-|sents By|ill ad-|vice _ to|walk; Nor|
w: But|makes the|per- fect|law of|God His|busi- ness|and _ de-|light; De-|
"^Emendations: The order of staves in this edition is the same as in the source, and while no indication of which part is thetreble and which is the tenor in this piece, the first piece in the book, starts with a 'Treble solo', which is printed on thefirst stave of the four-stave system, all other staves having rests printed.The counter part is notated in the alto clef in the source. The only indications of the text for this tune in the source are thetune title 'Ps 1st.' and the first two words 'How blest'." (E,6 F,2) G,4 | %9
w: still _ shall|
w: stands _ in|
w: vout- * ly|
 D,8 B,,4 | C,8 G,,4 | D,8 G,4 | F,8 G,4 | C,4 D,8 | G,,8 |] %15
w: flou- rish,|and suc-|cess All|his de-|signs at-|tend.|
w: sin- ners’|ways, nor|sits Where|men pro-|fane- ly|talk.|
w: reads there-|in by|day, And|me- di-|tates by|night.|

